X:1
T:You Will Be Upgraded
T:You Will Be Upgraded
T:Azimuth OST - 14
T:MD Steele Arr. Rayerdyne 
C:MD Steele
%%score { 1 | ( 2 3 ) } 4
L:1/8
Q:1/4=150
M:4/4
K:A
V:1 treble nm="Piano" snm="Pia."
V:2 bass 
V:3 bass 
V:4 perc nm="Batterie" snm="Bat."
K:none
I:percmap ^b b 52 x
I:percmap ^g g 42 x
V:1
 z8 | FF/F/ Ac e/e/G/G/ AB | f8 |] %3
V:2
 z8 | A,2 C,2 A,2 F,2 | A8 |] %3
V:3
 x8 | F,,4 A,,4 | F,,8 |] %3
V:4
[K:C] z4 z2 ^g/4^g/4^g/4^g/4^g/4^g/4^g/4^g/4 | ^b2 ^b^b/^b/ ^b2 ^b/^b/^b/^b/ | %2
 ^g/4^g/4^g/4^g/4!>(!^g/4^g/4^g/4^g/4 ^g/4^g/4^g/4^g/4^g/4^g/4^g/4^g/4!>)!!sfz! ^b4 |] %3

